icons/fill-new-tool-edit-magnifier-plus-zoom-in.svg

<svg xmlns="http://www.w3.org/2000/svg" width="32px" height="32px" viewBox="0 0 32 32" version="1.1">
    <title>fill-new-tool-edit-magnifier-plus-zoom-in</title>
    <g id="fill-new-tool-edit-magnifier-plus-zoom-in" stroke-width="1" fill-rule="evenodd">
        <path d="M15,2 C22.1797017,2 28,7.82029825 28,15 C28,18.2296841 26.8222516,21.1842904 24.8728079,23.4577656 L29.7071068,28.2928932 C30.0976311,28.6834175 30.0976311,29.3165825 29.7071068,29.7071068 C29.3165825,30.0976311 28.6834175,30.0976311 28.2928932,29.7071068 L23.4577656,24.8728079 C21.1842904,26.8222516 18.2296841,28 15,28 C7.82029825,28 2,22.1797017 2,15 C2,7.82029825 7.82029825,2 15,2 Z M15,10 C14.4477153,10 14,10.4477153 14,11 L14,14 L11,14 C10.4871642,14 10.0644928,14.3860402 10.0067277,14.8833789 L10,15 C10,15.5522847 10.4477153,16 11,16 L14,16 L14,19 C14,19.5128358 14.3860402,19.9355072 14.8833789,19.9932723 L15,20 C15.5522847,20 16,19.5522847 16,19 L16,16 L19,16 C19.5128358,16 19.9355072,15.6139598 19.9932723,15.1166211 L20,15 C20,14.4477153 19.5522847,14 19,14 L16,14 L16,11 C16,10.4871642 15.6139598,10.0644928 15.1166211,10.0067277 L15,10 Z" id="&#24418;&#29366;" />
    </g>
</svg>

<svg xmlns="http://www.w3.org/2000/svg" viewBox="0 0 32 32"><path fill="currentColor" d="M15 2c7.18 0 13 5.82 13 13 0 3.23-1.178 6.184-3.127 8.458l4.834 4.835a1 1 0 0 1-1.414 1.414l-4.835-4.834A12.949 12.949 0 0 1 15 28C7.82 28 2 22.18 2 15S7.82 2 15 2m0 8a1 1 0 0 0-1 1v3h-3a1 1 0 0 0-.993.883L10 15a1 1 0 0 0 1 1h3v3a1 1 0 0 0 .883.993L15 20a1 1 0 0 0 1-1v-3h3a1 1 0 0 0 .993-.883L20 15a1 1 0 0 0-1-1h-3v-3a1 1 0 0 0-.883-.993z"/></svg>
